;FLAVOR:Marlin
;TIME:22923
;Filament used: 53.5412m
;Layer height: 0.32
;MINX:0.628
;MINY:11.236
;MINZ:0.32
;MAXX:234.032
;MAXY:224.096
;MAXZ:143.861
;Generated with Cura_SteamEngine 4.13.1
M140 S50
M105
M190 S50
M104 S200
M105
M109 S200
M82 ;absolute extrusion mode
; Ender 3 Custom Start G-code
G92 E0 ; Reset Extruder
G28 ; Home all axes
G1 Z2.0 F3000 ; Move Z Axis up little to prevent scratching of Heat Bed
G1 X0.1 Y20 Z0.3 F5000.0 ; Move to start position
G1 X0.1 Y200.0 Z0.3 F1500.0 E15 ; Draw the first line
G1 X0.4 Y200.0 Z0.3 F5000.0 ; Move to side a little
G1 X0.4 Y20 Z0.3 F1500.0 E30 ; Draw the second line
G92 E0 ; Reset Extruder
G1 Z2.0 F3000 ; Move Z Axis up little to prevent scratching of Heat Bed
G1 X5 Y20 Z0.3 F5000.0 ; Move over to prevent blob squish
G92 E0
G92 E0
G1 F2700 E-5
;LAYER_COUNT:23
;LAYER:0
M107
G0 F6000 X58.189 Y113.231 Z0.32
;TYPE:SKIRT
G1 F2700 E0
G1 F1200 X92.594 Y93.368 E5.28532
G1 X93.37 Y92.935 E5.40354
G1 X93.661 Y92.778 E5.44753
G1 X94.299 Y92.446 E5.54321
G1 X94.824 Y92.184 E5.62127
G1 X95.494 Y91.875 E5.71943
G1 X96.334 Y91.516 E5.84097
G1 X96.726 Y91.356 E5.8973
G1 X97.172 Y91.183 E5.96094
G1 X97.874 Y90.934 E6.06004
G1 X98.722 Y90.662 E6.17852
G1 X99.113 Y90.544 E6.23285
G1 X99.59 Y90.408 E6.29884
G1 X100.311 Y90.225 E6.3978
G1 X101.204 Y90.027 E6.51949
G1 X101.588 Y89.949 E6.57163
G1 X102.027 Y89.866 E6.63107
G1 X102.792 Y89.745 E6.73411
G1 X103.716 Y89.629 E6.858
G1 X104.089 Y89.588 E6.90792
G1 X104.562 Y89.543 E6.97114
G1 X105.336 Y89.494 E7.07432
G1 X106.22 Y89.465 E7.19199
G1 X106.605 Y89.458 E7.24322
G1 X107.096 Y89.457 E7.30854
G1 X107.858 Y89.479 E7.40996
G1 X108.772 Y89.533 E7.53177
G1 X109.16 Y89.562 E7.58353
G1 X109.636 Y89.605 E7.64712
G1 X110.401 Y89.698 E7.74964
G1 X111.29 Y89.834 E7.86929
G1 X111.662 Y89.896 E7.91947
G1 X112.124 Y89.981 E7.98196
G1 X112.881 Y90.145 E8.08501
G1 X113.777 Y90.368 E8.20785
G1 X114.178 Y90.475 E8.26307
G1 X114.635 Y90.605 E8.32628
G1 X115.345 Y90.83 E8.42537
G1 X116.182 Y91.123 E8.54335
G1 X116.557 Y91.261 E8.59651
G1 X117.028 Y91.443 E8.66369
G1 X117.708 Y91.729 E8.76183
G1 X118.524 Y92.101 E8.88114
G1 X118.908 Y92.284 E8.93773
G1 X119.336 Y92.497 E9.00134
G1 X119.982 Y92.843 E9.09883
G1 X120.776 Y93.298 E9.22058
G1 X121.138 Y93.513 E9.27659
G1 X121.534 Y93.758 E9.33855
G1 X122.153 Y94.167 E9.43725
G1 X122.883 Y94.681 E9.55603
G1 X123.199 Y94.911 E9.60803
G1 X123.602 Y95.214 E9.67511
G1 X124.196 Y95.69 E9.77638
G1 X124.858 Y96.254 E9.89208
G1 X125.149 Y96.509 E9.94355
G1 X125.514 Y96.84 E10.00911
G1 X126.077 Y97.384 E10.11326
G1 X126.722 Y98.047 E10.23632
G1 X126.998 Y98.34 E10.28988
G1 X127.319 Y98.692 E10.35325
G1 X127.8 Y99.252 E10.45147
G1 X128.36 Y99.944 E10.5699
G1 X128.609 Y100.262 E10.62363
G1 X128.902 Y100.649 E10.68821
G1 X129.337 Y101.26 E10.788
G1 X129.849 Y102.028 E10.9108
G1 X130.071 Y102.374 E10.96549
G1 X130.507 Y103.077 E11.07554
G1 X130.734 Y103.454 E11.13409
G1 X157.734 Y150.22 E18.31835
G1 X158.283 Y151.201 E18.46791
G1 X158.426 Y151.465 E18.50786
G1 X158.593 Y151.782 E18.55552
G1 X158.714 Y152.018 E18.59081
G1 X159.02 Y152.63 E18.68184
G1 X159.335 Y153.309 E18.78142
G1 X159.693 Y154.147 E18.90266
G1 X159.846 Y154.522 E18.95654
G1 X160.022 Y154.974 E19.02107
G1 X160.278 Y155.695 E19.12286
G1 X160.544 Y156.525 E19.23882
G1 X160.668 Y156.937 E19.29606
G1 X160.797 Y157.393 E19.35911
G1 X160.968 Y158.069 E19.45187
G1 X161.177 Y159.004 E19.57934
G1 X161.268 Y159.448 E19.63963
G1 X161.349 Y159.884 E19.69863
G1 X161.46 Y160.598 E19.79476
G1 X161.572 Y161.483 E19.91344
G1 X161.614 Y161.861 E19.96404
G1 X161.661 Y162.352 E20.02966
G1 X161.711 Y163.118 E20.13179
G1 X161.742 Y164.029 E20.25306
G1 X161.749 Y164.454 E20.30961
G1 X161.749 Y164.93 E20.37294
G1 X161.727 Y165.668 E20.47117
G1 X161.674 Y166.564 E20.59058
G1 X161.642 Y166.985 E20.64675
G1 X161.596 Y167.479 E20.71276
G1 X161.507 Y168.206 E20.8102
G1 X161.373 Y169.084 E20.92836
G1 X161.311 Y169.45 E20.97775
G1 X161.224 Y169.925 E21.04199
G1 X161.059 Y170.692 E21.14637
G1 X160.84 Y171.572 E21.26702
G1 X160.73 Y171.984 E21.32375
G1 X160.595 Y172.457 E21.38919
G1 X160.377 Y173.145 E21.48521
G1 X160.087 Y173.976 E21.6023
G1 X159.952 Y174.343 E21.65433
G1 X159.779 Y174.793 E21.71847
G1 X159.476 Y175.513 E21.82239
G1 X159.099 Y176.336 E21.94283
G1 X158.944 Y176.662 E21.99085
G1 X158.716 Y177.124 E22.05939
G1 X158.345 Y177.82 E22.16432
G1 X157.906 Y178.584 E22.28155
G1 X157.707 Y178.918 E22.33327
G1 X157.464 Y179.312 E22.39486
G1 X157.04 Y179.955 E22.49733
G1 X156.499 Y180.722 E22.6222
G1 X156.265 Y181.043 E22.67505
G1 X155.983 Y181.417 E22.73737
G1 X155.517 Y181.997 E22.83635
G1 X154.93 Y182.686 E22.95677
G1 X154.698 Y182.951 E23.00363
G1 X154.395 Y183.287 E23.06382
G1 X153.822 Y183.881 E23.17362
G1 X153.154 Y184.53 E23.29753
G1 X152.863 Y184.805 E23.3508
G1 X152.503 Y185.133 E23.41559
G1 X151.952 Y185.606 E23.5122
G1 X151.273 Y186.156 E23.62846
G1 X150.94 Y186.416 E23.68466
G1 X150.535 Y186.722 E23.75219
G1 X149.934 Y187.15 E23.85035
G1 X149.214 Y187.63 E23.96548
G1 X148.884 Y187.842 E24.01766
G1 X148.127 Y188.313 E24.13628
G1 X147.773 Y188.526 E24.19124
G1 X113.105 Y208.54 E29.5169
G1 X111.332 Y209.519 E29.78635
G1 X110.887 Y209.753 E29.85324
G1 X110.477 Y209.958 E29.91423
G1 X109.921 Y210.219 E29.99594
G1 X109.471 Y210.417 E30.06135
G1 X109.163 Y210.548 E30.10588
G1 X108.541 Y210.802 E30.19526
G1 X107.93 Y211.033 E30.28217
G1 X107.385 Y211.223 E30.35895
G1 X107.027 Y211.342 E30.40914
G1 X106.44 Y211.527 E30.49103
G1 X106.054 Y211.642 E30.54461
G1 X105.659 Y211.75 E30.59909
G1 X105.215 Y211.863 E30.66004
G1 X104.933 Y211.931 E30.69864
G1 X104.224 Y212.094 E30.79542
G1 X103.534 Y212.232 E30.88904
G1 X103.038 Y212.317 E30.95599
G1 X102.695 Y212.371 E31.00218
G1 X102.058 Y212.462 E31.08779
G1 X101.706 Y212.508 E31.13502
G1 X101.317 Y212.549 E31.18706
G1 X101.066 Y212.572 E31.22059
G1 X100.62 Y212.605 E31.28009
G1 X98.734 Y212.71 E31.53139
G1 X98.48 Y212.721 E31.56522
G1 X15.137 Y215.659 E42.6601
G1 X14.541 Y215.672 E42.73941
G1 X13.4 Y215.645 E42.89126
G1 X13.041 Y215.62 E42.93913
G1 X12.047 Y215.511 E43.07217
G1 X11.065 Y215.322 E43.20521
G1 X10.03 Y215.033 E43.34818
G1 X9.837 Y214.97 E43.37519
G1 X8.9 Y214.622 E43.50816
G1 X7.993 Y214.2 E43.64125
G1 X7.243 Y213.78 E43.75561
G1 X6.982 Y213.622 E43.7962
G1 X6.148 Y213.071 E43.92919
G1 X5.361 Y212.454 E44.06223
G1 X4.312 Y211.453 E44.25514
G1 X4.188 Y211.32 E44.27933
G1 X3.536 Y210.562 E44.41235
G1 X2.947 Y209.754 E44.54537
G1 X2.608 Y209.22 E44.62952
G1 X2.475 Y208.998 E44.66395
G1 X1.996 Y208.121 E44.7969
G1 X1.589 Y207.208 E44.92989
G1 X1.2 Y206.08 E45.08863
G1 X1.136 Y205.861 E45.11899
G1 X0.894 Y204.891 E45.25199
G1 X0.73 Y203.905 E45.38497
G1 X0.651 Y203.012 E45.50424
G1 X0.64 Y202.803 E45.53208
G1 X0.628 Y201.803 E45.66513
G1 X0.695 Y200.806 E45.79807
G1 X0.826 Y199.901 E45.91973
G1 X0.868 Y199.671 E45.95084
G1 X1.087 Y198.695 E46.08391
G1 X1.383 Y197.74 E46.21693
G1 X1.732 Y196.863 E46.3425
G1 X1.85 Y196.596 E46.38134
G1 X2.29 Y195.699 E46.51426
G1 X2.581 Y195.189 E46.59238
G1 X3.015 Y194.47 E46.70411
G1 X47.183 Y123.84 E57.7868
G1 X47.319 Y123.627 E57.82043
G1 X48.311 Y122.11 E58.06157
G1 X48.553 Y121.753 E58.11895
G1 X48.784 Y121.425 E58.17232
G1 X49.087 Y121.013 E58.24036
G1 X49.277 Y120.767 E58.28171
G1 X49.548 Y120.425 E58.33977
G1 X49.742 Y120.186 E58.38072
G1 X50.177 Y119.664 E58.47112
G1 X50.605 Y119.177 E58.55738
G1 X51.001 Y118.749 E58.63495
G1 X51.287 Y118.45 E58.69
G1 X51.806 Y117.925 E58.78821
G1 X52.258 Y117.49 E58.87167
G1 X52.575 Y117.2 E58.92883
G1 X52.866 Y116.942 E58.98057
G1 X53.427 Y116.46 E59.07897
G1 X53.927 Y116.053 E59.16474
G1 X54.346 Y115.729 E59.23521
G1 X54.612 Y115.528 E59.27957
G1 X55.111 Y115.163 E59.36182
G1 X55.463 Y114.914 E59.41918
G1 X55.75 Y114.721 E59.46519
G1 X55.955 Y114.587 E59.49778
G1 X56.329 Y114.351 E59.55661
G1 X57.974 Y113.357 E59.81231
G1 X58.189 Y113.231 E59.84547
G0 F6000 X58.689 Y114.097
G1 F1200 X93.081 Y94.242 E65.12875
G1 X93.857 Y93.809 E65.24698
G1 X94.125 Y93.664 E65.28752
G1 X94.746 Y93.341 E65.38064
G1 X95.271 Y93.079 E65.4587
G1 X95.887 Y92.794 E65.549
G1 X96.727 Y92.435 E65.67054
G1 X97.087 Y92.288 E65.72227
G1 X97.533 Y92.115 E65.78591
G1 X98.18 Y91.887 E65.87718
G1 X99.028 Y91.615 E65.99566
G1 X99.387 Y91.506 E66.04557
G1 X99.864 Y91.37 E66.11156
G1 X100.528 Y91.202 E66.20268
G1 X101.421 Y91.004 E66.32437
G1 X101.774 Y90.931 E66.37233
G1 X102.213 Y90.848 E66.43177
G1 X102.917 Y90.738 E66.52657
G1 X103.841 Y90.622 E66.65046
G1 X104.184 Y90.584 E66.69637
G1 X104.657 Y90.539 E66.75959
G1 X105.369 Y90.493 E66.85451
G1 X106.253 Y90.464 E66.97218
G1 X106.607 Y90.458 E67.01928
G1 X107.098 Y90.457 E67.08461
G1 X107.799 Y90.477 E67.17791
G1 X108.713 Y90.531 E67.29972
G1 X109.07 Y90.558 E67.34735
G1 X109.546 Y90.601 E67.41093
G1 X110.25 Y90.686 E67.50527
G1 X111.139 Y90.822 E67.62492
G1 X111.481 Y90.88 E67.67107
G1 X111.943 Y90.965 E67.73357
G1 X112.639 Y91.115 E67.82829
G1 X113.535 Y91.338 E67.95113
G1 X113.905 Y91.437 E68.00209
G1 X114.362 Y91.567 E68.0653
G1 X115.015 Y91.774 E68.15644
G1 X115.852 Y92.067 E68.27442
G1 X116.197 Y92.194 E68.32333
G1 X116.668 Y92.376 E68.3905
G1 X117.293 Y92.639 E68.48072
G1 X118.109 Y93.011 E68.60003
G1 X118.463 Y93.179 E68.65216
G1 X118.891 Y93.392 E68.71576
G1 X119.485 Y93.71 E68.8054
G1 X120.279 Y94.165 E68.92715
G1 X120.612 Y94.363 E68.97869
G1 X121.008 Y94.608 E69.04064
G1 X121.578 Y94.985 E69.13156
G1 X122.308 Y95.499 E69.25034
G1 X122.598 Y95.71 E69.29805
G1 X123.001 Y96.013 E69.36513
G1 X123.548 Y96.451 E69.45836
G1 X124.21 Y97.015 E69.57406
G1 X124.477 Y97.25 E69.62138
G1 X124.842 Y97.581 E69.68694
G1 X125.36 Y98.081 E69.78272
G1 X126.005 Y98.744 E69.90578
G1 X126.259 Y99.014 E69.9551
G1 X126.58 Y99.366 E70.01848
G1 X127.023 Y99.881 E70.10885
G1 X127.583 Y100.573 E70.22729
G1 X127.812 Y100.865 E70.27666
G1 X128.105 Y101.252 E70.34124
G1 X128.505 Y101.815 E70.43312
G1 X129.017 Y102.583 E70.55592
G1 X129.221 Y102.901 E70.60618
G1 X129.657 Y103.604 E70.71623
G1 X129.874 Y103.965 E70.77227
G1 X156.868 Y150.72 E77.95487
G1 X156.952 Y150.867 E77.97739
G1 X157.41 Y151.688 E78.10246
G1 X157.541 Y151.931 E78.13919
G1 X157.82 Y152.465 E78.21935
G1 X158.126 Y153.077 E78.31038
G1 X158.415 Y153.702 E78.40199
G1 X158.773 Y154.54 E78.52322
G1 X158.914 Y154.885 E78.57281
G1 X159.09 Y155.337 E78.63734
G1 X159.325 Y156 E78.73092
G1 X159.591 Y156.83 E78.84688
G1 X159.706 Y157.21 E78.8997
G1 X159.835 Y157.666 E78.96275
G1 X159.992 Y158.287 E79.04796
G1 X160.201 Y159.222 E79.17543
G1 X160.285 Y159.63 E79.23085
G1 X160.366 Y160.066 E79.28984
G1 X160.468 Y160.723 E79.3783
G1 X160.58 Y161.608 E79.49698
G1 X160.619 Y161.956 E79.54357
G1 X160.666 Y162.447 E79.60919
G1 X160.711 Y163.152 E79.70317
G1 X160.742 Y164.063 E79.82444
G1 X160.749 Y164.454 E79.87647
G1 X160.749 Y164.93 E79.9398
G1 X160.729 Y165.609 E80.03017
G1 X160.676 Y166.505 E80.14958
G1 X160.646 Y166.892 E80.20122
G1 X160.6 Y167.386 E80.26723
G1 X160.518 Y168.055 E80.3569
G1 X160.384 Y168.933 E80.47506
G1 X160.328 Y169.27 E80.52051
G1 X160.241 Y169.745 E80.58476
G1 X160.089 Y170.45 E80.68071
G1 X159.87 Y171.33 E80.80135
G1 X159.768 Y171.709 E80.85357
G1 X159.633 Y172.182 E80.91901
G1 X159.433 Y172.815 E81.00733
G1 X159.143 Y173.646 E81.12442
G1 X159.019 Y173.984 E81.17232
G1 X158.846 Y174.434 E81.23646
G1 X158.567 Y175.096 E81.33204
G1 X158.19 Y175.919 E81.45247
G1 X158.048 Y176.219 E81.49663
G1 X157.82 Y176.681 E81.56517
G1 X157.478 Y177.321 E81.66171
G1 X157.039 Y178.085 E81.77894
G1 X156.856 Y178.393 E81.8266
G1 X156.613 Y178.787 E81.88819
G1 X156.223 Y179.378 E81.98239
G1 X155.682 Y180.145 E82.10726
G1 X155.466 Y180.441 E82.15601
G1 X155.184 Y180.815 E82.21833
G1 X154.756 Y181.349 E82.30938
G1 X154.169 Y182.038 E82.4298
G1 X153.955 Y182.282 E82.47298
G1 X153.652 Y182.618 E82.53317
G1 X153.126 Y183.164 E82.63403
G1 X152.458 Y183.813 E82.75794
G1 X152.189 Y184.066 E82.80707
G1 X151.829 Y184.394 E82.87187
G1 X151.322 Y184.829 E82.96074
G1 X150.643 Y185.379 E83.07699
G1 X150.338 Y185.618 E83.12855
G1 X149.933 Y185.924 E83.19608
G1 X149.379 Y186.318 E83.28652
G1 X148.659 Y186.798 E83.40164
G1 X148.355 Y186.993 E83.44969
G1 X147.598 Y187.464 E83.56831
G1 X147.273 Y187.659 E83.61873
G1 X112.605 Y207.673 E88.94439
G1 X112.407 Y207.785 E88.97466
G1 X110.849 Y208.644 E89.21135
G1 X110.44 Y208.859 E89.27283
G1 X110.03 Y209.064 E89.33381
G1 X109.518 Y209.304 E89.40904
G1 X109.068 Y209.502 E89.47445
G1 X108.785 Y209.623 E89.5154
G1 X108.163 Y209.877 E89.60478
G1 X107.601 Y210.089 E89.68469
G1 X107.056 Y210.279 E89.76148
G1 X106.727 Y210.388 E89.80759
G1 X106.14 Y210.573 E89.88947
G1 X105.776 Y210.682 E89.94002
G1 X105.412 Y210.781 E89.99021
G1 X104.968 Y210.894 E90.05116
G1 X104.709 Y210.957 E90.08662
G1 X104 Y211.12 E90.18341
G1 X103.365 Y211.247 E90.26956
G1 X102.869 Y211.332 E90.33651
G1 X102.553 Y211.381 E90.37906
G1 X101.916 Y211.472 E90.46466
G1 X101.479 Y211.527 E90.52326
G1 X100.974 Y211.576 E90.59076
G1 X100.564 Y211.606 E90.64545
G1 X98.678 Y211.711 E90.89676
G1 X98.444 Y211.722 E90.92792
G1 X15.269 Y214.655 E102.00045
G1 X14.519 Y214.672 E102.10025
G1 X13.469 Y214.647 E102.23999
G1 X13.11 Y214.622 E102.28786
G1 X12.157 Y214.516 E102.41543
G1 X11.216 Y214.33 E102.54305
G1 X10.34 Y214.082 E102.66417
G1 X10.147 Y214.019 E102.69118
G1 X9.249 Y213.684 E102.81869
G1 X8.382 Y213.275 E102.94623
G1 X7.761 Y212.925 E103.04107
G1 X7.5 Y212.767 E103.08166
G1 X6.701 Y212.236 E103.20929
G1 X5.949 Y211.641 E103.33687
G1 X5.044 Y210.771 E103.50388
G1 X4.92 Y210.638 E103.52807
G1 X4.296 Y209.91 E103.65563
G1 X3.734 Y209.133 E103.78321
G1 X3.466 Y208.706 E103.85028
G1 X3.333 Y208.484 E103.88471
G1 X2.875 Y207.642 E104.01223
G1 X2.488 Y206.764 E104.13989
G1 X2.16 Y205.8 E104.27536
G1 X2.096 Y205.581 E104.30571
G1 X1.865 Y204.65 E104.43333
G1 X1.713 Y203.703 E104.56093
G1 X1.65 Y202.959 E104.66027
G1 X1.639 Y202.75 E104.68811
G1 X1.628 Y201.792 E104.81557
G1 X1.698 Y200.835 E104.94323
G1 X1.81 Y200.08 E105.04478
G1 X1.852 Y199.85 E105.07588
G1 X2.064 Y198.915 E105.20343
G1 X2.352 Y198 E105.33105
G1 X2.646 Y197.267 E105.43612
G1 X2.764 Y197 E105.47496
G1 X3.188 Y196.14 E105.60252
G1 X3.438 Y195.706 E105.66916
G1 X3.967 Y194.832 E105.80508
G1 X48.031 Y124.37 E116.86148
G1 X48.156 Y124.174 E116.89241
G1 X49.148 Y122.657 E117.13355
G1 X49.371 Y122.329 E117.18632
G1 X49.602 Y122.001 E117.23969
G1 X49.886 Y121.614 E117.30355
G1 X50.061 Y121.388 E117.34158
G1 X50.332 Y121.046 E117.39963
G1 X50.51 Y120.826 E117.43728
G1 X50.945 Y120.304 E117.52768
G1 X51.339 Y119.856 E117.60706
G1 X51.735 Y119.428 E117.68463
G1 X51.998 Y119.153 E117.73526
G1 X52.517 Y118.628 E117.83347
G1 X52.933 Y118.228 E117.91025
G1 X53.25 Y117.938 E117.96741
G1 X53.518 Y117.7 E118.01509
G1 X54.079 Y117.218 E118.11349
G1 X54.538 Y116.844 E118.19227
G1 X54.957 Y116.52 E118.26273
G1 X55.203 Y116.335 E118.30368
G1 X55.702 Y115.97 E118.38593
G1 X56.033 Y115.736 E118.43986
G1 X56.297 Y115.558 E118.48222
G1 X56.502 Y115.424 E118.51481
G1 X56.847 Y115.207 E118.56903
G1 X58.492 Y114.213 E118.82473
G1 X58.689 Y114.097 E118.85515
G0 F6000 X59.189 Y114.963
G1 F1200 X93.569 Y95.115 E124.13658
G1 X94.345 Y94.682 E124.25481
G1 X94.589 Y94.55 E124.29172
G1 X95.192 Y94.236 E124.38216
G1 X95.717 Y93.974 E124.46023
G1 X96.28 Y93.714 E124.54273
G1 X97.12 Y93.355 E124.66426
G1 X97.449 Y93.221 E124.71152
G1 X97.895 Y93.048 E124.77517
G1 X98.485 Y92.839 E124.85844
G1 X99.333 Y92.567 E124.97692
G1 X99.661 Y92.467 E125.02254
G1 X100.138 Y92.331 E125.08853
G1 X100.744 Y92.178 E125.17168
G1 X101.637 Y91.98 E125.29337
G1 X101.959 Y91.914 E125.3371
G1 X102.398 Y91.831 E125.39654
G1 X103.041 Y91.73 E125.48314
G1 X103.965 Y91.614 E125.60703
G1 X104.279 Y91.579 E125.64906
G1 X104.752 Y91.534 E125.71228
G1 X105.402 Y91.493 E125.79892
G1 X106.286 Y91.464 E125.91659
G1 X106.609 Y91.458 E125.95957
G1 X107.1 Y91.457 E126.0249
G1 X107.74 Y91.475 E126.11008
G1 X108.654 Y91.529 E126.23189
G1 X108.98 Y91.554 E126.27539
G1 X109.456 Y91.597 E126.33897
G1 X110.099 Y91.675 E126.42514
G1 X110.988 Y91.811 E126.54479
G1 X111.3 Y91.863 E126.58687
