;FLAVOR:Marlin
;TIME:10055
;Filament used: 25.5056m
;Layer height: 0.32
;MINX:22.66
;MINY:70.581
;MINZ:0.32
;MAXX:212.34
;MAXY:161.5
;MAXZ:29.12
;Generated with Cura_SteamEngine 4.13.1
M140 S50
M105
M190 S50
M104 S200
M105
M109 S200
M82 ;absolute extrusion mode
; Ender 3 Custom Start G-code
G92 E0 ; Reset Extruder
G28 ; Home all axes
G1 Z2.0 F3000 ; Move Z Axis up little to prevent scratching of Heat Bed
G1 X0.1 Y20 Z0.3 F5000.0 ; Move to start position
G1 X0.1 Y200.0 Z0.3 F1500.0 E15 ; Draw the first line
G1 X0.4 Y200.0 Z0.3 F5000.0 ; Move to side a little
G1 X0.4 Y20 Z0.3 F1500.0 E30 ; Draw the second line
G92 E0 ; Reset Extruder
G1 Z2.0 F3000 ; Move Z Axis up little to prevent scratching of Heat Bed
G1 X5 Y20 Z0.3 F5000.0 ; Move over to prevent blob squish
G92 E0
G92 E0
G1 F2700 E-5
;LAYER_COUNT:91
;LAYER:0
M107
G0 F6000 X31.566 Y71.243 Z0.32
;TYPE:SKIRT
G1 F2700 E0
G1 F1200 X32.287 Y70.961 E0.103
G1 X33.034 Y70.756 E0.20605
G1 X33.798 Y70.629 E0.30909
G1 X34.646 Y70.581 E0.42209
G1 X71.221 Y70.581 E5.28805
G1 X71.994 Y70.621 E5.39103
G1 X72.759 Y70.74 E5.49403
G1 X73.508 Y70.938 E5.5971
G1 X74.33 Y71.256 E5.71435
G1 X74.521 Y71.343 E5.74228
G1 X75.208 Y71.7 E5.84528
G1 X75.855 Y72.126 E5.94834
G1 X76.454 Y72.616 E6.0513
G1 X76.998 Y73.163 E6.15393
G1 X77.238 Y73.431 E6.2018
G1 X86.86 Y73.431 E7.48191
G1 X87.633 Y73.471 E7.58489
G1 X88.242 Y73.566 E7.66689
G1 X88.686 Y73.515 E7.72635
G1 X89.153 Y73.5 E7.78851
G1 X93.567 Y73.5 E8.37575
G1 X94.34 Y73.54 E8.47873
G1 X95.105 Y73.659 E8.58173
G1 X95.854 Y73.857 E8.6848
G1 X96.578 Y74.131 E8.78779
G1 X97.271 Y74.478 E8.8909
G1 X97.923 Y74.895 E8.99386
G1 X98.529 Y75.377 E9.09688
G1 X98.87 Y75.697 E9.15909
G1 X99.163 Y75.99 E9.21422
G1 X99.356 Y76.204 E9.25256
G1 X99.557 Y75.99 E9.29162
G1 X99.85 Y75.697 E9.34675
G1 X100.425 Y75.178 E9.4498
G1 X101.05 Y74.722 E9.55273
G1 X101.719 Y74.332 E9.65575
G1 X102.425 Y74.014 E9.75877
G1 X103.16 Y73.77 E9.8618
G1 X103.916 Y73.603 E9.9648
G1 X104.686 Y73.515 E10.06791
G1 X105.153 Y73.5 E10.13007
G1 X124.847 Y73.5 E12.75017
G1 X125.62 Y73.54 E12.85315
G1 X126.385 Y73.659 E12.95615
G1 X127.134 Y73.857 E13.05922
G1 X127.858 Y74.131 E13.16221
G1 X128.551 Y74.478 E13.26532
G1 X129.203 Y74.895 E13.36828
G1 X129.637 Y75.24 E13.44204
G1 X129.705 Y75.178 E13.45429
G1 X130.33 Y74.722 E13.55722
G1 X130.999 Y74.332 E13.66024
G1 X131.705 Y74.014 E13.76326
G1 X132.44 Y73.77 E13.86629
G1 X133.196 Y73.603 E13.96929
G1 X133.966 Y73.515 E14.0724
G1 X134.433 Y73.5 E14.13456
G1 X145.847 Y73.5 E15.65309
G1 X146.62 Y73.54 E15.75606
G1 X146.852 Y73.576 E15.7873
G1 X147.386 Y73.515 E15.8588
G1 X147.853 Y73.5 E15.92097
G1 X159.267 Y73.5 E17.43949
G1 X160.04 Y73.54 E17.54247
G1 X160.805 Y73.659 E17.64547
G1 X161.554 Y73.857 E17.74854
G1 X162.278 Y74.131 E17.85153
G1 X162.971 Y74.478 E17.95464
G1 X163.623 Y74.895 E18.0576
G1 X164.057 Y75.24 E18.13136
G1 X164.125 Y75.178 E18.14361
G1 X164.75 Y74.722 E18.24653
G1 X165.419 Y74.332 E18.34956
G1 X166.125 Y74.014 E18.45257
G1 X166.86 Y73.77 E18.55561
G1 X167.616 Y73.603 E18.65861
G1 X168.386 Y73.515 E18.76172
G1 X168.853 Y73.5 E18.82388
G1 X188.547 Y73.5 E21.44398
G1 X189.32 Y73.54 E21.54696
G1 X190.085 Y73.659 E21.64996
G1 X190.834 Y73.857 E21.75303
G1 X191.558 Y74.131 E21.85602
G1 X192.251 Y74.478 E21.95913
G1 X192.903 Y74.895 E22.06209
G1 X193.509 Y75.377 E22.16511
G1 X193.64 Y75.5 E22.18901
G1 X195.048 Y75.5 E22.37633
G1 X195.405 Y75.178 E22.4403
G1 X196.03 Y74.722 E22.54322
G1 X196.699 Y74.332 E22.64625
G1 X197.405 Y74.014 E22.74926
G1 X198.14 Y73.77 E22.8523
G1 X198.896 Y73.603 E22.9553
G1 X199.666 Y73.515 E23.05841
G1 X200.133 Y73.5 E23.12057
G1 X204.547 Y73.5 E23.70781
G1 X205.32 Y73.54 E23.81079
G1 X206.085 Y73.659 E23.91379
G1 X206.834 Y73.857 E24.01686
G1 X207.558 Y74.131 E24.11985
G1 X208.251 Y74.478 E24.22296
G1 X208.903 Y74.895 E24.32592
G1 X209.509 Y75.377 E24.42894
G1 X209.85 Y75.697 E24.49115
G1 X210.143 Y75.99 E24.54628
G1 X210.662 Y76.565 E24.64933
G1 X211.118 Y77.19 E24.75226
G1 X211.508 Y77.859 E24.85528
G1 X211.826 Y78.565 E24.9583
G1 X212.07 Y79.3 E25.06133
G1 X212.237 Y80.056 E25.16433
G1 X212.325 Y80.826 E25.26744
G1 X212.34 Y81.293 E25.3296
G1 X212.34 Y150.857 E34.58444
G1 X212.3 Y151.63 E34.68741
G1 X212.181 Y152.395 E34.79041
G1 X211.983 Y153.144 E34.89348
G1 X211.709 Y153.868 E34.99647
G1 X211.362 Y154.561 E35.09958
G1 X210.945 Y155.213 E35.20255
G1 X210.463 Y155.819 E35.30556
G1 X210.143 Y156.16 E35.36778
G1 X209.85 Y156.453 E35.4229
G1 X209.275 Y156.972 E35.52596
G1 X208.65 Y157.428 E35.62888
G1 X207.981 Y157.818 E35.73191
G1 X207.275 Y158.136 E35.83492
G1 X206.573 Y158.369 E35.93333
G1 X206.238 Y158.796 E36.00553
G1 X205.699 Y159.353 E36.10865
G1 X205.106 Y159.85 E36.21159
G1 X204.357 Y160.348 E36.33125
G1 X204.123 Y160.484 E36.36726
G1 X203.434 Y160.838 E36.47032
G1 X202.713 Y161.12 E36.57331
G1 X201.966 Y161.325 E36.67637
G1 X201.202 Y161.452 E36.77941
G1 X200.354 Y161.5 E36.89241
G1 X163.783 Y161.5 E41.75783
G1 X163.01 Y161.46 E41.86081
G1 X162.245 Y161.341 E41.96381
G1 X161.496 Y161.143 E42.06688
G1 X160.744 Y160.856 E42.17397
G1 X160.55 Y160.77 E42.2022
G1 X159.859 Y160.421 E42.30519
G1 X159.208 Y160.001 E42.40826
G1 X158.603 Y159.517 E42.51134
G1 X158 Y158.915 E42.62469
G1 X157.763 Y158.65 E42.67199
G1 X147.853 Y158.65 E43.99042
G1 X147.08 Y158.61 E44.0934
G1 X146.848 Y158.574 E44.12464
G1 X146.314 Y158.635 E44.19614
G1 X145.847 Y158.65 E44.2583
G1 X135.937 Y158.65 E45.57674
G1 X135.7 Y158.915 E45.62404
G1 X135.155 Y159.465 E45.72705
G1 X134.556 Y159.955 E45.83001
G1 X133.909 Y160.381 E45.93307
G1 X133.15 Y160.77 E46.04653
G1 X132.956 Y160.856 E46.07477
G1 X132.233 Y161.133 E46.17777
G1 X131.485 Y161.334 E46.28082
G1 X130.721 Y161.457 E46.38377
G1 X129.917 Y161.5 E46.49089
G1 X93.346 Y161.5 E51.35631
G1 X92.573 Y161.46 E51.45929
G1 X91.808 Y161.341 E51.56229
G1 X91.059 Y161.143 E51.66536
G1 X90.335 Y160.869 E51.76835
G1 X89.577 Y160.484 E51.88145
G1 X89.343 Y160.348 E51.91746
G1 X88.695 Y159.925 E52.02041
G1 X88.093 Y159.437 E52.12351
G1 X87.545 Y158.89 E52.22653
G1 X87.273 Y158.555 E52.28394
G1 X86.86 Y158.581 E52.33899
G1 X76.97 Y158.581 E53.65476
G1 X76.197 Y158.541 E53.75774
G1 X75.844 Y158.486 E53.80527
G1 X75.144 Y158.566 E53.899
G1 X74.677 Y158.581 E53.96116
G1 X65.563 Y158.581 E55.1737
G1 X64.79 Y158.541 E55.27667
G1 X64.422 Y158.484 E55.32622
G1 X64.203 Y158.523 E55.35581
G1 X63.27 Y158.581 E55.48018
G1 X51 Y158.581 E57.11259
G1 X50.227 Y158.541 E57.21556
G1 X49.874 Y158.486 E57.26309
G1 X49.174 Y158.566 E57.35683
G1 X48.707 Y158.581 E57.41899
G1 X40.263 Y158.581 E58.54238
G1 X39.49 Y158.541 E58.64536
G1 X39.122 Y158.484 E58.6949
G1 X38.903 Y158.523 E58.7245
G1 X37.97 Y158.581 E58.84887
G1 X30.453 Y158.581 E59.84893
G1 X29.68 Y158.541 E59.95191
G1 X28.915 Y158.422 E60.05491
G1 X28.166 Y158.224 E60.15798
G1 X27.442 Y157.95 E60.26097
G1 X26.749 Y157.603 E60.36408
G1 X26.097 Y157.186 E60.46704
G1 X25.491 Y156.704 E60.57006
G1 X25.15 Y156.384 E60.63227
G1 X24.857 Y156.091 E60.6874
G1 X24.338 Y155.516 E60.79045
G1 X23.882 Y154.891 E60.89338
G1 X23.492 Y154.222 E60.9964
G1 X23.174 Y153.516 E61.09942
G1 X22.93 Y152.781 E61.20245
G1 X22.763 Y152.025 E61.30545
G1 X22.675 Y151.255 E61.40856
G1 X22.66 Y150.788 E61.47072
G1 X22.66 Y81.224 E70.72556
G1 X22.7 Y80.451 E70.82853
G1 X22.819 Y79.686 E70.93153
G1 X23.017 Y78.937 E71.03461
G1 X23.291 Y78.213 E71.13759
G1 X23.638 Y77.52 E71.2407
G1 X24.055 Y76.868 E71.34367
G1 X24.537 Y76.262 E71.44668
G1 X24.857 Y75.921 E71.5089
G1 X25.15 Y75.628 E71.56403
G1 X25.725 Y75.109 E71.66708
G1 X26.35 Y74.653 E71.77001
G1 X27.019 Y74.263 E71.87303
G1 X27.725 Y73.945 E71.97604
G1 X28.426 Y73.712 E72.07432
G1 X28.762 Y73.285 E72.14661
G1 X29.301 Y72.728 E72.24973
G1 X29.894 Y72.231 E72.35267
G1 X30.643 Y71.733 E72.47233
G1 X30.877 Y71.597 E72.50834
G1 X31.566 Y71.243 E72.61139
G0 F6000 X32.022 Y72.134
G1 F1200 X32.697 Y71.88 E72.70734
G1 X33.395 Y71.702 E72.80318
G1 X34.109 Y71.603 E72.89908
G1 X34.646 Y71.581 E72.97058
G1 X71.221 Y71.581 E77.83654
G1 X71.941 Y71.621 E77.93247
G1 X72.652 Y71.74 E78.02838
G1 X73.345 Y71.938 E78.12427
G1 X73.915 Y72.166 E78.20594
G1 X74.106 Y72.253 E78.23387
G1 X74.745 Y72.587 E78.32979
G1 X75.342 Y72.991 E78.42569
G1 X75.891 Y73.458 E78.52158
G1 X76.253 Y73.831 E78.59074
G1 X76.8 Y74.442 E78.69984
G1 X76.97 Y74.431 E78.7225
G1 X86.86 Y74.431 E80.03827
G1 X87.58 Y74.471 E80.13421
G1 X88.208 Y74.576 E80.21892
G1 X88.377 Y74.546 E80.24176
G1 X89.153 Y74.5 E80.34518
G1 X93.567 Y74.5 E80.93242
G1 X94.287 Y74.54 E81.02835
G1 X94.998 Y74.659 E81.12426
G1 X95.691 Y74.857 E81.22015
G1 X96.358 Y75.13 E81.31603
G1 X96.991 Y75.475 E81.41194
G1 X97.582 Y75.888 E81.50786
G1 X98.163 Y76.404 E81.61124
G1 X98.456 Y76.697 E81.66637
G1 X98.937 Y77.234 E81.76228
G1 X99.355 Y77.821 E81.85816
G1 X99.361 Y77.832 E81.85982
G1 X99.748 Y77.278 E81.94973
G1 X100.264 Y76.697 E82.05311
G1 X100.557 Y76.404 E82.10824
G1 X101.094 Y75.923 E82.20415
G1 X101.681 Y75.505 E82.30002
G1 X102.311 Y75.154 E82.39597
G1 X102.976 Y74.876 E82.49186
G1 X103.667 Y74.672 E82.58771
G1 X104.377 Y74.546 E82.68365
G1 X105.153 Y74.5 E82.78707
G1 X124.847 Y74.5 E85.40717
G1 X125.567 Y74.54 E85.5031
G1 X126.278 Y74.659 E85.59901
G1 X126.971 Y74.857 E85.6949
G1 X127.638 Y75.13 E85.79078
G1 X128.271 Y75.475 E85.88669
G1 X128.862 Y75.888 E85.98262
G1 X129.443 Y76.404 E86.086
G1 X129.64 Y76.601 E86.12306
G1 X129.837 Y76.404 E86.16013
G1 X130.374 Y75.923 E86.25604
G1 X130.961 Y75.505 E86.35191
G1 X131.591 Y75.154 E86.44786
G1 X132.256 Y74.876 E86.54375
G1 X132.947 Y74.672 E86.6396
G1 X133.657 Y74.546 E86.73554
G1 X134.433 Y74.5 E86.83896
G1 X145.847 Y74.5 E88.35748
G1 X146.567 Y74.54 E88.45342
G1 X146.847 Y74.587 E88.49119
G1 X147.077 Y74.546 E88.52227
G1 X147.853 Y74.5 E88.62569
G1 X159.267 Y74.5 E90.14422
G1 X159.987 Y74.54 E90.24015
G1 X160.698 Y74.659 E90.33606
G1 X161.391 Y74.857 E90.43195
G1 X162.058 Y75.13 E90.52783
G1 X162.691 Y75.475 E90.62374
G1 X163.282 Y75.888 E90.71966
G1 X163.863 Y76.404 E90.82304
G1 X163.959 Y76.5 E90.84111
G1 X164.161 Y76.5 E90.86798
G1 X164.257 Y76.404 E90.88604
G1 X164.794 Y75.923 E90.98196
G1 X165.381 Y75.505 E91.07783
G1 X166.011 Y75.154 E91.17377
G1 X166.676 Y74.876 E91.26966
G1 X167.367 Y74.672 E91.36552
G1 X168.077 Y74.546 E91.46145
G1 X168.853 Y74.5 E91.56487
G1 X188.547 Y74.5 E94.18497
G1 X189.267 Y74.54 E94.28091
G1 X189.978 Y74.659 E94.37682
G1 X190.671 Y74.857 E94.47271
G1 X191.338 Y75.13 E94.56859
G1 X191.971 Y75.475 E94.6645
G1 X192.562 Y75.888 E94.76042
G1 X193.143 Y76.404 E94.8638
G1 X193.239 Y76.5 E94.88186
G1 X195.441 Y76.5 E95.17482
G1 X195.537 Y76.404 E95.19288
G1 X196.074 Y75.923 E95.28879
G1 X196.661 Y75.505 E95.38467
G1 X197.291 Y75.154 E95.48061
G1 X197.956 Y74.876 E95.5765
G1 X198.647 Y74.672 E95.67236
G1 X199.357 Y74.546 E95.76829
G1 X200.133 Y74.5 E95.87171
G1 X204.547 Y74.5 E96.45895
G1 X205.267 Y74.54 E96.55489
G1 X205.978 Y74.659 E96.6508
G1 X206.671 Y74.857 E96.74668
G1 X207.338 Y75.13 E96.84257
G1 X207.971 Y75.475 E96.93848
G1 X208.562 Y75.888 E97.0344
G1 X209.143 Y76.404 E97.13778
G1 X209.436 Y76.697 E97.19291
G1 X209.917 Y77.234 E97.28882
G1 X210.335 Y77.821 E97.38469
G1 X210.686 Y78.451 E97.48064
G1 X210.964 Y79.116 E97.57653
G1 X211.168 Y79.807 E97.67238
G1 X211.294 Y80.517 E97.76832
G1 X211.34 Y81.293 E97.87174
G1 X211.34 Y150.857 E107.12657
G1 X211.3 Y151.577 E107.22251
G1 X211.181 Y152.288 E107.31841
G1 X210.983 Y152.981 E107.4143
G1 X210.71 Y153.648 E107.51018
G1 X210.365 Y154.281 E107.6061
G1 X209.952 Y154.872 E107.70202
G1 X209.436 Y155.453 E107.8054
G1 X209.143 Y155.746 E107.86053
G1 X208.606 Y156.227 E107.95644
G1 X208.019 Y156.645 E108.05231
G1 X207.389 Y156.996 E108.14826
G1 X206.724 Y157.274 E108.24415
G1 X206.033 Y157.478 E108.34
G1 X205.974 Y157.488 E108.34796
G1 X205.87 Y157.652 E108.3738
G1 X205.419 Y158.213 E108.46956
G1 X204.907 Y158.721 E108.56552
G1 X204.343 Y159.17 E108.66143
G1 X203.854 Y159.484 E108.73874
G1 X203.62 Y159.62 E108.77475
G1 X202.978 Y159.947 E108.8706
G1 X202.303 Y160.201 E108.96655
G1 X201.605 Y160.379 E109.06239
G1 X200.891 Y160.478 E109.15829
G1 X200.354 Y160.5 E109.22979
G1 X163.783 Y160.5 E114.09521
G1 X163.063 Y160.46 E114.19115
G1 X162.352 Y160.341 E114.28706
G1 X161.659 Y160.143 E114.38294
G1 X161.149 Y159.942 E114.45587
G1 X160.955 Y159.856 E114.48411
G1 X160.313 Y159.528 E114.58002
G1 X159.712 Y159.131 E114.67585
G1 X159.158 Y158.669 E114.77182
G1 X158.745 Y158.248 E114.85028
G1 X158.21 Y157.65 E114.95703
G1 X147.853 Y157.65 E116.33493
G1 X147.133 Y157.61 E116.43087
G1 X146.853 Y157.563 E116.46864
G1 X146.623 Y157.604 E116.49972
G1 X145.847 Y157.65 E116.60314
G1 X135.49 Y157.65 E117.98104
G1 X134.955 Y158.248 E118.08779
G1 X134.445 Y158.758 E118.18375
G1 X133.882 Y159.208 E118.27964
G1 X133.273 Y159.593 E118.37549
G1 X132.745 Y159.856 E118.45397
G1 X132.551 Y159.942 E118.4822
G1 X131.877 Y160.197 E118.57807
G1 X131.179 Y160.376 E118.67394
G1 X130.465 Y160.477 E118.76988
G1 X129.917 Y160.5 E118.84285
G1 X93.346 Y160.5 E123.70827
G1 X92.626 Y160.46 E123.80421
G1 X91.915 Y160.341 E123.90012
G1 X91.222 Y160.143 E123.996
G1 X90.555 Y159.87 E124.09189
G1 X90.08 Y159.62 E124.1633
G1 X89.846 Y159.484 E124.19931
G1 X89.244 Y159.088 E124.29517
G1 X88.689 Y158.627 E124.39116
G1 X88.189 Y158.108 E124.48704
G1 X87.749 Y157.537 E124.58294
G1 X87.692 Y157.527 E124.59064
G1 X86.86 Y157.581 E124.70156
G1 X76.97 Y157.581 E126.01733
G1 X76.25 Y157.541 E126.11327
G1 X75.822 Y157.469 E126.17101
G1 X75.453 Y157.535 E126.22088
G1 X74.677 Y157.581 E126.3243
G1 X65.563 Y157.581 E127.53683
G1 X64.843 Y157.541 E127.63277
G1 X64.414 Y157.469 E127.69064
G1 X64.102 Y157.527 E127.73286
G1 X63.27 Y157.581 E127.84379
G1 X51 Y157.581 E129.47619
G1 X50.28 Y157.541 E129.57213
G1 X49.852 Y157.469 E129.62987
G1 X49.483 Y157.535 E129.67974
G1 X48.707 Y157.581 E129.78316
G1 X40.263 Y157.581 E130.90656
G1 X39.543 Y157.541 E131.0025
G1 X39.114 Y157.469 E131.06037
G1 X38.802 Y157.527 E131.10259
G1 X37.97 Y157.581 E131.21351
G1 X30.453 Y157.581 E132.21358
G1 X29.733 Y157.541 E132.30951
G1 X29.022 Y157.422 E132.40542
G1 X28.329 Y157.224 E132.50131
G1 X27.662 Y156.951 E132.59719
G1 X27.029 Y156.606 E132.6931
G1 X26.438 Y156.193 E132.78902
G1 X25.857 Y155.677 E132.8924
G1 X25.564 Y155.384 E132.94753
G1 X25.083 Y154.847 E133.04344
G1 X24.665 Y154.26 E133.13931
G1 X24.314 Y153.63 E133.23526
G1 X24.036 Y152.965 E133.33115
G1 X23.832 Y152.274 E133.42701
G1 X23.706 Y151.564 E133.52294
G1 X23.66 Y150.788 E133.62636
G1 X23.66 Y81.224 E142.88119
G1 X23.7 Y80.504 E142.97713
G1 X23.819 Y79.793 E143.07304
G1 X24.017 Y79.1 E143.16892
G1 X24.29 Y78.433 E143.26481
G1 X24.635 Y77.8 E143.36072
G1 X25.048 Y77.209 E143.45664
G1 X25.564 Y76.628 E143.56002
G1 X25.857 Y76.335 E143.61515
G1 X26.394 Y75.854 E143.71106
G1 X26.981 Y75.436 E143.80693
G1 X27.611 Y75.085 E143.90288
G1 X28.276 Y74.807 E143.99877
G1 X28.967 Y74.603 E144.09462
G1 X29.026 Y74.593 E144.10258
G1 X29.13 Y74.429 E144.12842
G1 X29.582 Y73.868 E144.22427
G1 X30.093 Y73.36 E144.32013
G1 X30.657 Y72.911 E144.41604
G1 X31.146 Y72.597 E144.49335
G1 X31.38 Y72.461 E144.52936
G1 X32.022 Y72.134 E144.62521
G0 F6000 X32.475 Y73.028
G1 F1200 X33.098 Y72.803 E144.71334
G1 X33.745 Y72.655 E144.80164
G1 X34.646 Y72.581 E144.92191
G1 X71.221 Y72.581 E149.78787
G1 X71.883 Y72.621 E149.8761
G1 X72.535 Y72.74 E149.96428
G1 X73.168 Y72.937 E150.05248
G1 X73.501 Y73.076 E150.10048
G1 X73.692 Y73.163 E150.12841
G1 X74.278 Y73.473 E150.21661
G1 X74.822 Y73.852 E150.30481
G1 X75.508 Y74.498 E150.43017
G1 X76.326 Y75.411 E150.59326
G1 X76.371 Y75.468 E150.60292
G1 X76.97 Y75.431 E150.68277
G1 X86.86 Y75.431 E151.99854
G1 X87.522 Y75.471 E152.08677
G1 X88.17 Y75.589 E152.1744
G1 X88.814 Y75.51 E152.26072
G1 X89.153 Y75.5 E152.30584
G1 X93.567 Y75.5 E152.89308
G1 X94.229 Y75.54 E152.98131
G1 X94.881 Y75.659 E153.06949
G1 X95.514 Y75.856 E153.15769
G1 X96.119 Y76.128 E153.24594
G1 X96.687 Y76.47 E153.33415
G1 X97.209 Y76.879 E153.42237
G1 X97.456 Y77.111 E153.46745
G1 X97.749 Y77.404 E153.52258
G1 X98.189 Y77.9 E153.61079
G1 X98.566 Y78.446 E153.69907
